assets/icons/linkedin.svg

<svg role="img" fill="currentColor" viewBox="0 0 24 24" xmlns="http://www.w3.org/2000/svg">
	<title>LinkedIn</title>
	<path
		d="M17.9667 0H6.01427C2.70262 0 0 2.70476 0 6.01905V18C0 21.2952 2.70262 24 6.01427 24H17.9857C21.2974 24 24 21.2952 24 17.981V6.01905C23.981 2.70476 21.2784 0 17.9667 0ZM7.99366 19.4286H4.5678V9.52381H7.99366V19.4286ZM6.2617 8C5.29104 8 4.51071 7.21905 4.51071 6.24762C4.51071 5.27619 5.29104 4.49524 6.2617 4.49524C7.23236 4.49524 8.01269 5.27619 8.01269 6.24762C7.99366 7.21905 7.21332 8 6.2617 8ZM19.4322 19.4286H19.4132H16.5583V14.6286C16.5583 13.4667 16.406 11.981 14.8263 11.981C13.2086 11.981 12.9421 13.2381 12.9421 14.5524V19.4286H10.0872V9.52381H12.7518V10.8571H12.8279C13.2466 10.0952 14.2173 9.50476 15.7399 9.50476C18.8803 9.50476 19.4322 11.3143 19.4322 14V19.4286Z" />
</svg>

<svg fill="currentColor" viewBox="0 0 24 24" xmlns="http://www.w3.org/2000/svg"><path d="M17.967 0H6.014C2.703 0 0 2.705 0 6.02V18c0 3.295 2.703 6 6.014 6h11.972C21.297 24 24 21.295 24 17.981V6.019C23.981 2.705 21.278 0 17.967 0zM7.994 19.429H4.568V9.524h3.426v9.905zM6.262 8C5.29 8 4.51 7.22 4.51 6.248s.78-1.753 1.75-1.753c.971 0 1.752.781 1.752 1.753C7.993 7.219 7.213 8 6.262 8zm13.17 11.429h-2.874v-4.8c0-1.162-.152-2.648-1.732-2.648-1.617 0-1.884 1.257-1.884 2.571v4.877h-2.855V9.524h2.665v1.333h.076c.419-.762 1.39-1.352 2.912-1.352 3.14 0 3.692 1.81 3.692 4.495v5.429z"/></svg>
